X:15
T:Lowlands Low (Halyards)
M:C|
L:1/8
Q:1/4=110
K:F
C2|\
F2F2 E2C2|_A2A2 G4|c4 B4|_A2F2 G2A2|F6 CC|
F2F2 EECC|_A2A2 G4|c4 B4|_A2F2 G2A2|F6 ||
